X: 192
T: Nongfu da tu
L: 1/8
M: 2/4
K: G
e e/ g/ e d [I:setbarnb 1]| 
e e/ g/ e d | 
B d/ e< B A/ | 
A> GE2 | 
E A A A | 
A B d3/ e/ | 
B d B A | 
A> GE2 |]

@@@ Tune index: 8860
